assets/icons/json.svg

<svg width="40" height="40" viewBox="0 0 40 40" fill="none" xmlns="http://www.w3.org/2000/svg">
<path d="M26.3495 10.6021L26.3285 10.097C26.2232 7.48001 26.1671 6.16801 27.0301 5.78213C27.9001 5.39625 28.8543 6.31535 30.7556 8.16757L32.3412 9.69706C33.569 10.8898 34.1794 11.4791 33.8286 12.3561C33.4778 13.2331 32.692 13.2331 31.1345 13.2401C30.3627 13.2401 29.605 13.2261 28.9314 13.1981C27.7808 13.156 27.2055 13.1419 26.8196 12.749C26.4267 12.3631 26.3986 11.7808 26.3495 10.6021Z" stroke="currentColor" stroke-width="1.5"/>
<path d="M22.5401 4H20.751C15.4609 4 12.8159 4 11.1671 5.64175C9.52539 7.28349 9.52539 9.93554 9.52539 15.2256V24.7744C9.52539 30.0645 9.52539 32.7095 11.1671 34.3583C12.8159 36 15.4679 36 20.751 36H23.7959C29.086 36 31.731 36 33.3728 34.3583C35.0216 32.7095 35.0216 30.0645 35.0216 24.7744V16.4745C35.0216 14.1662 35.0216 13.0156 34.5866 11.9842C34.1586 10.9458 33.3377 10.132 31.71 8.51129L30.4471 7.26244C28.8334 5.64876 28.0196 4.84894 26.9952 4.42096C25.9639 4 24.8203 4 22.5401 4Z" stroke="currentColor" stroke-width="1.5"/>
<path d="M25.2127 19.582H6.20636C5.04391 19.582 4.10156 20.5244 4.10156 21.6868V26.5349C4.10156 27.6973 5.04391 28.6397 6.20636 28.6397H25.2127C26.3752 28.6397 27.3175 27.6973 27.3175 26.5349V21.6868C27.3175 20.5244 26.3752 19.582 25.2127 19.582Z" fill="currentColor"/>
<path d="M7.91829 26.7808C8.97771 26.7808 9.5881 26.1704 9.5881 25.118V21.7082H8.57078V25.111C8.57078 25.6091 8.33925 25.8827 7.91128 25.8827C7.50435 25.8827 7.27984 25.6021 7.2658 25.2232V25.2022H6.26953V25.2303C6.2976 26.1704 6.90799 26.7738 7.91829 26.7738V26.7808ZM12.2261 26.7808C13.4539 26.7808 14.1906 26.1704 14.1906 25.2162C14.1906 24.4304 13.7346 24.0024 12.7172 23.799L12.191 23.6867C11.6298 23.5745 11.3842 23.3921 11.3842 23.0763C11.3842 22.7255 11.6999 22.473 12.2261 22.473C12.7243 22.473 13.0751 22.7115 13.1312 23.1044V23.1395H14.0924V23.0693C14.0433 22.1993 13.3487 21.624 12.2191 21.624C11.1386 21.624 10.3599 22.2274 10.3599 23.1395C10.3599 23.8902 10.851 24.3603 11.8122 24.5567L12.3243 24.662C12.9347 24.7882 13.1663 24.9566 13.1663 25.2934C13.1663 25.6793 12.8155 25.9248 12.2542 25.9248C11.6929 25.9248 11.293 25.6863 11.2298 25.3004L11.2228 25.2653H10.2546V25.3215C10.3178 26.2335 11.0615 26.7808 12.2191 26.7808H12.2261ZM17.0181 26.7808C18.4704 26.7808 19.3754 25.7845 19.3754 24.2059V24.1989C19.3754 22.6133 18.4633 21.624 17.0181 21.624C15.5798 21.624 14.6677 22.6063 14.6677 24.1989C14.6677 25.7845 15.5728 26.7808 17.0181 26.7808ZM17.0181 25.8968C16.2182 25.8968 15.7061 25.2443 15.7061 24.2059V24.1989C15.7061 23.1535 16.2252 22.5151 17.0181 22.5151C17.8249 22.5151 18.33 23.1605 18.33 24.1989C18.33 25.2373 17.8389 25.8968 17.0181 25.8968ZM20.0349 26.6896H21.0523V23.4271H21.0733L23.2833 26.6896H24.1744V21.7082H23.15V24.9496H23.136L20.926 21.7082H20.0349V26.6896Z" fill="white"/>
</svg>

<svg xmlns="http://www.w3.org/2000/svg" width="40" height="40" fill="none" viewBox="0 0 40 40"><path stroke="currentColor" stroke-width="1.5" d="m26.35 10.602-.022-.505c-.105-2.617-.16-3.929.702-4.315.87-.386 1.824.533 3.726 2.386l1.585 1.53c1.228 1.192 1.838 1.781 1.488 2.658s-1.137.877-2.695.884c-.771 0-1.529-.014-2.203-.042-1.15-.042-1.726-.056-2.111-.449-.393-.386-.421-.968-.47-2.147Z"/><path stroke="currentColor" stroke-width="1.5" d="M22.54 4h-1.789c-5.29 0-7.935 0-9.584 1.642-1.642 1.641-1.642 4.294-1.642 9.584v9.548c0 5.29 0 7.935 1.642 9.584C12.816 36 15.467 36 20.751 36h3.045c5.29 0 7.935 0 9.577-1.642 1.649-1.648 1.649-4.293 1.649-9.584v-8.3c0-2.308 0-3.458-.435-4.49-.428-1.038-1.25-1.852-2.877-3.473l-1.263-1.249C28.833 5.65 28.02 4.85 26.995 4.421 25.964 4 24.82 4 22.54 4Z"/><path fill="currentColor" d="M25.213 19.582H6.206a2.105 2.105 0 0 0-2.104 2.105v4.848c0 1.162.942 2.105 2.104 2.105h19.007a2.105 2.105 0 0 0 2.104-2.105v-4.848a2.105 2.105 0 0 0-2.104-2.105"/><path fill="#fff" d="M7.918 26.78c1.06 0 1.67-.61 1.67-1.662v-3.41H8.571v3.403c0 .498-.232.772-.66.772-.407 0-.631-.28-.645-.66v-.02H6.27v.027c.028.94.638 1.544 1.648 1.544zm4.308 0c1.228 0 1.965-.61 1.965-1.564 0-.786-.456-1.214-1.474-1.417l-.526-.112c-.561-.113-.807-.295-.807-.61 0-.352.316-.604.842-.604.498 0 .85.239.905.631v.036h.961v-.07c-.049-.87-.743-1.446-1.873-1.446-1.08 0-1.86.603-1.86 1.516 0 .75.492 1.22 1.453 1.417l.512.105c.61.126.842.295.842.631 0 .386-.35.632-.912.632-.561 0-.961-.239-1.024-.625l-.007-.035h-.968v.056c.063.912.806 1.46 1.964 1.46zm4.792 0c1.452 0 2.357-.995 2.357-2.574v-.007c0-1.586-.912-2.575-2.357-2.575-1.438 0-2.35.982-2.35 2.575 0 1.585.905 2.582 2.35 2.582m0-.883c-.8 0-1.312-.653-1.312-1.691V24.2c0-1.046.52-1.684 1.312-1.684.807 0 1.312.645 1.312 1.684s-.491 1.698-1.312 1.698m3.017.793h1.017v-3.263h.021l2.21 3.263h.891v-4.982H23.15v3.242h-.014l-2.21-3.242h-.891z"/></svg>
